src/svg/gg.svg

<svg height="1000" width="1000.0" xmlns="http://www.w3.org/2000/svg">
    <path d="m350 450l200 200-200 200-350-350 350-350 87.5 87.5-50 50-37.5-37.5-250 250 250 250 100.6-100.6-150.6-149.4z m300-300l350 350-350 350-87.5-87.5 50-50 37.5 37.5 250-250-250-250-100.6 100.6 150.6 149.4-50 50-200-200z" />
  </svg>

<svg height="1000" width="1000" xmlns="http://www.w3.org/2000/svg"><path d="M350 450l200 200L350 850 0 500 350 150l87.5 87.5 -50 50L350 250 100 500l250 250L450.6 649.4 300 500l50 -50zM650 150L450 350l200 200 50 -50L549.4 350.6 650 250l250 250L650 750l-37.5 -37.5 -50 50L650 850l350 -350L650 150z"/></svg>
